X: 20788
T: Johnny McGoohan's
R: reel
M: 4/4
K: Dmajor
D2FA dAFD|A,DFD GECE|D2FA dAFA|G2ED CDEC|
DEFA dfce|dBAF E2FG|(3AGF GE FDED|1 CEAG FDDC:|2 CEAG FDDE||
FADE FABc|dfce dcBA|FADE FABF|AFED B,CDE|
F2DE FABc|dcB^G A2Bc|dfed (3cde dc|1 BGEC DCDE:|2 BGEC D3A,||

